lib/build/svg/brand/google-calendar.svg

<svg width="24" height="24" viewBox="0 0 24 24" fill="none" xmlns="http://www.w3.org/2000/svg">
<g clip-path="url(#clip0)">
<path d="M17.2631 6.73688H6.73686V17.2631H17.2631V6.73688Z" fill="white"/>
<path d="M17.2631 22L22 17.2631L19.6316 16.8591L17.2631 17.2631L16.8308 19.4295L17.2631 22Z" fill="#EA4335"/>
<path d="M2 17.2631V20.421C2 21.2934 2.70656 22 3.57891 22H6.73687L7.2232 19.6316L6.73687 17.2631L4.15617 16.8591L2 17.2631Z" fill="#188038"/>
<path d="M22 6.73687V3.57891C22 2.70656 21.2934 2 20.4211 2H17.2631C16.975 3.17469 16.8308 4.03914 16.8308 4.59344C16.8308 5.14766 16.975 5.86219 17.2631 6.73687C18.3108 7.03687 19.1002 7.18687 19.6316 7.18687C20.1629 7.18687 20.9523 7.03687 22 6.73687Z" fill="#1967D2"/>
<path d="M22 6.73688H17.2631V17.2631H22V6.73688Z" fill="#FBBC04"/>
<path d="M17.2631 17.2631H6.73686V22H17.2631V17.2631Z" fill="#34A853"/>
<path d="M17.2631 2H3.57898C2.70656 2 2 2.70656 2 3.57891V17.2631H6.73687V6.73687H17.2631V2Z" fill="#4285F4"/>
<path d="M8.8961 14.9027C8.50266 14.6369 8.23024 14.2488 8.08157 13.7355L8.99477 13.3592C9.07759 13.675 9.22235 13.9198 9.42899 14.0934C9.63423 14.2671 9.88423 14.3527 10.1763 14.3527C10.475 14.3527 10.7316 14.2619 10.946 14.0802C11.1606 13.8987 11.2684 13.6671 11.2684 13.3869C11.2684 13.1 11.1552 12.8658 10.929 12.6842C10.7027 12.5027 10.4184 12.4119 10.079 12.4119H9.55134V11.508H10.025C10.3171 11.508 10.5631 11.429 10.7631 11.271C10.9631 11.1132 11.0631 10.8974 11.0631 10.6224C11.0631 10.3777 10.9737 10.1829 10.7948 10.0369C10.6159 9.89079 10.3895 9.81712 10.1145 9.81712C9.84602 9.81712 9.6329 9.88821 9.47501 10.0316C9.3172 10.1754 9.19856 10.357 9.13024 10.5592L8.22634 10.1829C8.34602 9.84345 8.56579 9.54345 8.88813 9.28423C9.21055 9.02501 9.62235 8.89478 10.1224 8.89478C10.4921 8.89478 10.825 8.96587 11.1198 9.10923C11.4145 9.25267 11.646 9.45134 11.8131 9.70399C11.9803 9.9579 12.0631 10.2421 12.0631 10.5579C12.0631 10.8802 11.9856 11.1527 11.8303 11.3763C11.675 11.6 11.4842 11.771 11.2579 11.8908V11.9447C11.5501 12.0652 11.804 12.2631 11.9921 12.5171C12.1829 12.7737 12.279 13.0802 12.279 13.4382C12.279 13.796 12.1881 14.1158 12.0066 14.396C11.825 14.6763 11.5738 14.8974 11.2552 15.0579C10.9356 15.2184 10.5763 15.3001 10.1777 15.3001C9.71579 15.3013 9.28946 15.1684 8.89602 14.9027H8.8961ZM14.5052 10.371L13.5027 11.096L13.0013 10.3356L14.8 9.03813H15.4895V15.1579H14.5052V10.3711V10.371Z" fill="#4285F4"/>
</g>
<defs>
<clipPath id="clip0">
<rect width="20" height="20" fill="white" transform="translate(2 2)"/>
</clipPath>
</defs>
</svg>

<svg width="24" height="24" viewBox="0 0 24 24" fill="none" xmlns="http://www.w3.org/2000/svg">
  <path d="M17.263 6.737H6.737v10.526h10.526V6.737z" fill="#fff"/>
  <path d="M17.263 22L22 17.263l-2.368-.404-2.369.404-.432 2.166.432 2.571z" fill="#EA4335"/>
  <path d="M2 17.263v3.158A1.58 1.58 0 003.579 22h3.158l.486-2.368-.486-2.369-2.58-.404L2 17.263z" fill="#188038"/>
  <path d="M22 6.737V3.579A1.58 1.58 0 0020.421 2h-3.158c-.288 1.175-.432 2.04-.432 2.593 0 .555.144 1.27.432 2.144 1.048.3 1.837.45 2.369.45.53 0 1.32-.15 2.368-.45z" fill="#1967D2"/>
  <path d="M22 6.737h-4.737v10.526H22V6.737z" fill="#FBBC04"/>
  <path d="M17.263 17.263H6.737V22h10.526v-4.737z" fill="#34A853"/>
  <path d="M17.263 2H3.58A1.58 1.58 0 002 3.579v13.684h4.737V6.737h10.526V2z" fill="#4285F4"/>
  <path d="M8.896 14.903c-.393-.266-.666-.654-.814-1.168l.913-.376c.083.316.227.56.434.734.205.174.455.26.747.26.299 0 .556-.091.77-.273a.87.87 0 00.322-.693.86.86 0 00-.339-.703c-.226-.181-.51-.272-.85-.272h-.528v-.904h.474c.292 0 .538-.079.738-.237a.78.78 0 00.3-.649c0-.244-.09-.44-.268-.585a1.042 1.042 0 00-.68-.22c-.269 0-.482.071-.64.215a1.26 1.26 0 00-.345.527l-.904-.376c.12-.34.34-.64.662-.899.323-.259.734-.39 1.234-.39.37 0 .703.072.998.215.295.144.526.342.693.595.167.254.25.538.25.854 0 .322-.077.595-.233.818a1.606 1.606 0 01-.572.515v.054c.292.12.546.318.734.572a1.5 1.5 0 01.287.921c0 .358-.09.678-.272.958-.182.28-.433.501-.752.662-.32.16-.679.242-1.077.242a2.232 2.232 0 01-1.282-.397zm5.61-4.532l-1.003.725-.502-.76L14.8 9.038h.69v6.12h-.985V10.37z" fill="#4285F4"/>
</svg>
